packages/icons/src/components/Icon/assets/default-solid/image.svg

<svg width="20" height="20" viewBox="0 0 20 20" fill="none" xmlns="http://www.w3.org/2000/svg">
<path fill-rule="evenodd" clip-rule="evenodd" d="M2 5.92857C2 4.86345 2.89543 4 4 4H16C17.1046 4 18 4.86345 18 5.92857V14.0714C18 15.1365 17.1046 16 16 16H4C2.89543 16 2 15.1365 2 14.0714V5.92857ZM3.33333 10.9091V14.0714C3.33333 14.4265 3.63181 14.7143 4 14.7143H16C16.3682 14.7143 16.6667 14.4265 16.6667 14.0714V11.7663L14.6936 9.86371C14.4333 9.61265 14.0112 9.61265 13.7508 9.8637L12.0539 11.5L12.4714 11.9026C12.7318 12.1536 12.7318 12.5607 12.4714 12.8117C12.2111 13.0628 11.7889 13.0628 11.5286 12.8117L6.91585 8.36371C6.6555 8.11265 6.23339 8.11265 5.97304 8.36371L3.33333 10.9091ZM11.7778 7.42857C11.7778 7.90196 11.3798 8.28571 10.8889 8.28571C10.398 8.28571 10 7.90196 10 7.42857C10 6.95518 10.398 6.57143 10.8889 6.57143C11.3798 6.57143 11.7778 6.95518 11.7778 7.42857Z" fill="#727683"/>
</svg>

<svg xmlns="http://www.w3.org/2000/svg" width="20" height="20" fill="none" viewBox="0 0 20 20">
    <path fill="#727683" fill-rule="evenodd" d="M2 5.929C2 4.863 2.895 4 4 4h12c1.105 0 2 .863 2 1.929v8.142C18 15.137 17.105 16 16 16H4c-1.105 0-2-.864-2-1.929zm1.333 4.98v3.162c0 .356.299.643.667.643h12a.655.655 0 0 0 .667-.643v-2.305l-1.973-1.902a.684.684 0 0 0-.943 0L12.054 11.5l.417.403c.26.25.26.658 0 .909a.684.684 0 0 1-.942 0L6.916 8.364a.684.684 0 0 0-.943 0zm8.445-3.48c0 .473-.398.857-.89.857-.49 0-.888-.384-.888-.857 0-.474.398-.858.889-.858.49 0 .889.384.889.858" clip-rule="evenodd"/>
</svg>
